X:101
T:Kick and Push Hornpipe
R:hp
C:Bruce Osborne - May 2002
Z:abc by bosborne@kos.net
M:4/4
L:1/8
K:Eb
GF|EGB,E GB,EG|BcBG EGFE|DB,B,F DB,CD|EFGc BAGF|\
EGB,E GB,EG|BcBG EGFE|DB,B,F DB,CD|EGFD E2:|
|:c2|BGGc BGEF|GEGc B2 FG|AFFD B,DFD|BcBA G2 c2|\
BGGc BGEF|GEGc B2 FG|AFFD B,DFD|AGFD E2:|
